X:1
T:Santa Trinita, LM
T:E. Pieraccini
T:Santa Trinita, LM
T:Public Domain
C:E. Pieraccini
Z:Public Domain
%%score ( 1 2 ) ( 3 4 )
L:1/8
M:3/4
K:Bb
V:1 treble 
V:2 treble 
V:3 bass 
V:4 bass 
V:1
 [DF]2 | (F2 [=EG]2) [_EA]2 | [DB]4 [EA]2 | (c2 B2) [EG]2 | [DF]4 [Fd]2 | (d2 c2) [_Gc]2 | %6
 (c2 B2) [FB]2 | (AB) (c2 z) B | [FA]4 [A,F]2 | ([A,F]2 [B,G]2) [CA]2 | [DB]2 [Ec]2 [Fd]2 | %11
 (d2 c2) [Fd]2 | [Ee]6 | [EG]2 [EA]2 [EB]2 | (B2 D2) (DE) | [CF]4 [CE]2 x2 | [B,D]4 |] %17
V:2
 x2 | F2 x4 | x6 | E4 x2 | x6 | _G4 x2 | F4 x2 | F4 =E2 | x6 | x6 | x6 | F4 x2 | x6 | x6 | D4 D2 | %15
 x8 | x4 |] %17
V:3
 [B,,D]2 | (D2 ^C2) [B,,=C]2 | [B,,B,]4 [B,,^F,]2 | (^F,2 G,2) [B,,A,]2 | [B,,B,]4 [B,,B,]2 | %5
 [E,G,]4 [E,A,]2 | [D,F,]4 [_D,B,]2 | (C2 A,2) [C,G,]2 | F,4 [F,C]2 | (F,2 =E,2) [_E,C]2 | %10
 [D,F,]2 [C,A,]2 [B,,B,]2 | (=B,3 A,) B,2 | [C,C]6 | [C,E,]2 [C,F,]2 [C,_G,]2 | (F,2 B,2) [F,B,]2 | %15
 B,2 z2 F,,2 x2 | [B,,B,]4 |] %17
V:4
 x2 | B,,4 x2 | x6 | B,,4 x2 | x6 | x6 | x6 | C,4 x2 | F,4 x2 | C4 x2 | x6 | G,,4 x2 | x6 | x6 | %14
 F,4 x2 | F,4 A,4 | x4 |] %17

